dhis-2/dhis-support/dhis-support-system/src/main/resources/SVGs/symptom_outline.svg

<?xml version="1.0" encoding="UTF-8" standalone="no"?>
<!-- Created with Inkscape (http://www.inkscape.org/) -->
<svg id="svg8" xmlns:rdf="http://www.w3.org/1999/02/22-rdf-syntax-ns#" xmlns="http://www.w3.org/2000/svg" xmlns:osb="http://www.openswatchbook.org/uri/2009/osb" height="48" width="48" version="1.1" xmlns:cc="http://creativecommons.org/ns#" viewBox="0 0 12.7 12.7" xmlns:dc="http://purl.org/dc/elements/1.1/">
 <title id="title4753">UIO-icon</title>
 <metadata id="metadata5">
  <rdf:RDF>
   <cc:Work rdf:about="">
    <dc:format>image/svg+xml</dc:format>
    <dc:type rdf:resource="http://purl.org/dc/dcmitype/StillImage"/>
    <dc:title>UIO-icon</dc:title>
    <dc:creator>
     <cc:Agent>
      <dc:title>Joaquín Urbano</dc:title>
     </cc:Agent>
    </dc:creator>
    <dc:rights>
     <cc:Agent>
      <dc:title>GPL</dc:title>
     </cc:Agent>
    </dc:rights>
   </cc:Work>
  </rdf:RDF>
 </metadata>
 <g id="layer1" transform="translate(0,-284.3)" fill="#333">
  <path id="path1860" d="m23.758 4.0039c-1.8323 0.07488-3.4991 1.3092-4.0527 3.1016-0.23553 0.76229-0.23474 1.9018 0.001953 2.668 0.45018 1.4575 1.7691 2.6665 3.2598 2.9902 0.71828 0.15694 1.1159 0.15536 1.8555 0 2.0639-0.43414 3.543-2.242 3.543-4.3301 0-2.2012-1.6278-4.0732-3.8145-4.3887-0.266-0.0383-0.531-0.0517-0.793-0.041zm3.383 0.2559a5.3033 5.3033 0 0 1 0.709 0.6386 19.486 19.486 0 0 1 15.636 19.102 19.486 19.486 0 0 1 -7.9688 15.689l0.30469 0.41406a20 20 0 0 0 8.178 -16.103 20 20 0 0 0 -16.859 -19.74zm-6.4258 0.035156a20 20 0 0 0 -16.715 19.705 20 20 0 0 0 8.107 16.053l0.30469-0.41406a19.486 19.486 0 0 1 -7.8983 -15.639 19.486 19.486 0 0 1 15.5 -19.051 5.3033 5.3033 0 0 1 0.701 -0.6541zm2.8027 0.24805a2.5633 2.5633 0 0 0 -1.0918 2.0918 2.5633 2.5633 0 0 0 2.5625 2.5645 2.5633 2.5633 0 0 0 2.55 -2.3243 3.9112 3.9112 0 0 1 0.326 1.5488 3.9112 3.9112 0 0 1 -3.912 3.9122 3.9112 3.9112 0 0 1 -3.91 -3.9122 3.9112 3.9112 0 0 1 3.475 -3.8808zm1.4707 0.058594a2.0329 2.0329 0 0 1 0.20312 0.0097656 2.0329 2.0329 0 0 1 0.20117 0.03125 2.0329 2.0329 0 0 1 1.6289 1.9922 2.0329 2.0329 0 0 1 -2.0332 2.0332 2.0329 2.0329 0 0 1 -2.0312 -2.0332 2.0329 2.0329 0 0 1 2.0312 -2.0332zm-1.0586 9.0684c-1.9483 0.001778-3.8999 0.053167-4.2656 0.14844-1.1124 0.28981-2.0788 1.0494-2.8945 2.2754-0.26548 0.39896-1.2413 2.2721-2.1699 4.1641-2.9948 6.1012-2.8971 5.86-2.6562 6.666 0.19956 0.66789 1.0246 1.2773 1.7285 1.2773 0.1091 0 0.3534-0.044632 0.54297-0.10156 0.72388-0.21687 0.87995-0.4595 3.0918-4.752 0.70638-1.3708 0.93737-1.794 1.332-2.543-0.71779-0.33061-1.1769-1.0496-1.1777-1.8398 0-1.1192 0.90617-2.0254 2.0254-2.0254s2.0273 0.90617 2.0273 2.0254-0.90812 2.0273-2.0273 2.0273h-0.003906c0.023806 1.7438 0.042924 4.8184 0.044922 9.2227h0.019531c-0.002301 0.003242-0.003454 0.006515-0.005859 0.009766l-0.013672-0.009766c-0.16231 0.22929-0.12316 0.18346-0.28906 0.41797-5.9272 8.3726-6.6933 9.48-6.7617 9.7852-0.13429 0.5995 0.039024 1.2529 0.46484 1.7539h0.001953c0.42282 0.49786 1.2878 0.7637 1.9414 0.59375 0.74269-0.19291 0.59805-0.021581 4.3711-5.3496l1.2988-1.8359c0.27865-0.39332 0.44119-0.61825 0.7793-1.0957l0.75781-1.0703c-0.97447-0.16437-1.6883-1.0079-1.6895-1.9961 0-1.1192 0.90812-2.0254 2.0273-2.0254s2.0254 0.90617 2.0254 2.0254c-0.00081163 0.02725-0.002023 0.054815-0.003906 0.082031l0.70117 0.99219 1.8613 2.627 1.625 2.2969c3.773 5.328 3.6304 5.1567 4.373 5.3496 0.6536 0.16995 1.5166-0.095883 1.9395-0.59375h0.001953c0.42582-0.50099 0.60108-1.1544 0.4668-1.7539-0.068416-0.30515-0.83449-1.4125-6.7617-9.7852-0.1659-0.2345-0.1287-0.18869-0.29102-0.41797l-0.005859 0.003906c-0.00090995-0.001465-0.001012-0.002453-0.001953-0.003906h0.007813l0.009766-2.9824c-0.26888 0.83823-1.0474 1.4077-1.9277 1.4082-1.1192 0-2.0273-0.90812-2.0273-2.0273s0.90812-2.0254 2.0273-2.0254c0.88809 0.00066445 1.6713 0.57926 1.9336 1.4277l0.025391-6.8477 2.0879 4.0566c1.1483 2.2319 2.1918 4.1722 2.3184 4.3105 0.20604 0.23826 0.35532 0.5075 0.58008 0.59961 1.3785 0.56539 2.461-0.47888 2.5625-1.377 0.13005-1.1504-1.2116-3.4633-1.8184-4.6758 0.00000103-0.19367-2.5681-5.2691-2.9883-5.9062-0.8537-1.2944-1.8118-2.0588-2.9707-2.3672-0.35561-0.09428-2.3017-0.14047-4.25-0.13867zm-0.13672 0.51172h0.32031l3.4902 0.076172 0.32031 0.021484c1.2981 0.2274 2.1452 1.192 2.8887 2.3242l4.2891 8.6094c1.2844 2.8968-1.4165 2.9172-1.8398 2.0723l-4.3984-8.3555-0.98633-1.7129 0.015625 1.9512 0.005 1.082a2.5633 2.5633 0 0 0 -2.5645 -2.5566 2.5633 2.5633 0 0 0 -2.5625 2.5645 2.5633 2.5633 0 0 0 2.5625 2.5625 2.5633 2.5633 0 0 0 2.5645 -2.5586l0.021484 4.248a2.5633 2.5633 0 0 0 -1.48 -0.475 2.5633 2.5633 0 0 0 -2.564 2.565 2.5633 2.5633 0 0 0 2.5645 2.5625 2.5633 2.5633 0 0 0 1.5 -0.48828l0.009766 1.8398 6.8281 9.7676c0.62252 1.4224-1.1231 2.8039-2.4004 1.4316-2.4599-3.3713-4.914-6.7461-7.3848-10.109a2.5633 2.5633 0 0 0 0.009766 -0.20898 2.5633 2.5633 0 0 0 -2.5625 -2.5625 2.5633 2.5633 0 0 0 -2.5625 2.5625 2.5633 2.5633 0 0 0 1.3945 2.2793l-5.786 8.068c-1.421 1.452-2.921-0.353-2.373-1.465l6.93-10.066-0.004-0.32-0.039-8.389v-0.019531a2.5633 2.5633 0 0 0 2.041 -2.5059 2.5633 2.5633 0 0 0 -2.5625 -2.5645 2.5633 2.5633 0 0 0 -2.5625 2.5645 2.5633 2.5633 0 0 0 1.002 2.0273l-3.1348 5.9355c-0.821 1.347-2.716 0.265-2.349-0.901l4.7266-9.5938 0.17969-0.26562c0.77999-0.94199 1.5873-1.8299 2.8301-1.9043l0.32031-0.017578zm1.5449 4.0645c1.1192 0 2.0273 0.90812 2.0273 2.0273s-0.90812 2.0254-2.0273 2.0254-2.0273-0.90617-2.0273-2.0254 0.90812-2.0273 2.0273-2.0273zm-8.869 23.725-0.301 0.408a20 20 0 0 0 7.832 1.621 20 20 0 0 0 7.764 -1.568l-0.32422-0.4375a19.486 19.486 0 0 1 -7.44 1.492 19.486 19.486 0 0 1 -7.5312 -1.5156z" transform="matrix(.26458 0 0 .26458 0 284.3)" stroke-width=".13571"/>
 </g>
</svg>

<svg width="48" height="48" viewBox="0 0 48 48" fill="none" xmlns="http://www.w3.org/2000/svg">
<path d="M23.7578 4.0038C21.9255 4.07868 20.2587 5.31298 19.7051 7.10536C19.4696 7.86764 19.4704 9.00714 19.7071 9.77333C20.1573 11.2308 21.4762 12.4398 22.9669 12.7635C23.6851 12.9204 24.0827 12.9188 24.8223 12.7635C26.8862 12.3294 28.3653 10.5215 28.3653 8.43344C28.3653 6.23227 26.7375 4.36029 24.5508 4.0448C24.2848 4.0065 24.0198 3.9931 23.7578 4.0038ZM27.1408 4.2597C27.3958 4.45082 27.6331 4.66455 27.8497 4.89829C32.2607 5.78732 36.2281 8.17554 39.0782 11.6575C41.9283 15.1394 43.4856 19.5004 43.4855 24C43.481 27.0569 42.7573 30.0698 41.373 32.7952C39.9887 35.5206 37.9826 37.8821 35.5168 39.6888L35.8215 40.1029C38.3522 38.2484 40.411 35.8245 41.8316 33.0272C43.2523 30.2298 43.9949 27.1375 43.9994 24.0001C43.9966 19.2423 42.2977 14.6413 39.2078 11.0234C36.1179 7.40544 31.8394 5.00757 27.1406 4.26036L27.1408 4.2597ZM20.715 4.29485C16.0485 5.07187 11.8085 7.47793 8.74831 11.0856C5.68809 14.6932 4.00577 19.2689 4.00024 23.9996C4.00441 27.1225 4.73984 30.201 6.14761 32.9886C7.55538 35.7762 9.59638 38.1954 12.1071 40.0524L12.4118 39.6383C9.96585 37.8292 7.97749 35.4724 6.60597 32.7567C5.23445 30.041 4.51787 27.0419 4.51363 23.9995C4.5189 19.5277 6.06214 15.1937 8.88438 11.7249C11.7066 8.25606 15.6361 5.86353 20.0134 4.94878C20.2269 4.71003 20.4615 4.49111 20.7144 4.29469L20.715 4.29485ZM23.5177 4.5429C23.1815 4.77862 22.9068 5.09167 22.7168 5.45569C22.5268 5.81971 22.427 6.22405 22.4259 6.63467C22.4258 6.97132 22.4919 7.3047 22.6206 7.61578C22.7493 7.92685 22.938 8.20953 23.176 8.44767C23.4139 8.68581 23.6965 8.87474 24.0074 9.00368C24.3184 9.13262 24.6517 9.19903 24.9884 9.19914C25.6265 9.19861 26.2414 8.96011 26.713 8.53027C27.1845 8.10044 27.4789 7.51017 27.5383 6.87487C27.7514 7.36352 27.8624 7.89057 27.8643 8.42365C27.8645 8.93742 27.7634 9.44618 27.5668 9.92087C27.3703 10.3956 27.0821 10.8269 26.7189 11.1902C26.3556 11.5535 25.9243 11.8416 25.4496 12.0382C24.9749 12.2348 24.4662 12.3359 23.9524 12.3358C22.9151 12.3355 21.9205 11.9231 21.1872 11.1895C20.454 10.4558 20.0422 9.46092 20.0424 8.42365C20.0439 7.46291 20.399 6.53632 21.0398 5.82059C21.6807 5.10485 22.5626 4.65004 23.5174 4.5429H23.5177ZM24.9884 4.60149C25.0562 4.60136 25.124 4.60461 25.1915 4.61126C25.259 4.61831 25.3262 4.62874 25.3927 4.64251C25.8523 4.73571 26.2656 4.98497 26.5624 5.34805C26.8593 5.71113 27.0215 6.16569 27.0215 6.63468C27.0216 6.90169 26.969 7.1661 26.8669 7.41279C26.7647 7.65948 26.6149 7.88363 26.4261 8.07244C26.2373 8.26125 26.0132 8.41101 25.7665 8.51317C25.5198 8.61533 25.2554 8.66789 24.9884 8.66786C24.4495 8.6674 23.9328 8.45299 23.5519 8.07173C23.171 7.69048 22.9571 7.17359 22.9572 6.63468C22.9571 6.09577 23.171 5.57888 23.5519 5.19763C23.9328 4.81637 24.4495 4.60196 24.9884 4.60151V4.60149ZM23.9298 13.6698C21.9815 13.6716 20.0299 13.7229 19.6642 13.8182C18.5519 14.108 17.5855 14.8676 16.7698 16.0936C16.5043 16.4925 15.5285 18.3657 14.5999 20.2576C11.6051 26.3588 11.7028 26.1176 11.9437 26.9236C12.1433 27.5914 12.9683 28.2008 13.6722 28.2008C13.7813 28.2008 14.0256 28.1562 14.2152 28.0993C14.9391 27.8824 15.0951 27.6398 17.3069 23.3473C18.0133 21.9766 18.2443 21.5534 18.6389 20.8044C17.9211 20.4738 17.462 19.7548 17.4612 18.9646C17.4612 17.8454 18.3674 16.9392 19.4866 16.9392C20.6058 16.9392 21.5139 17.8454 21.5139 18.9646C21.5139 20.0838 20.6058 20.9919 19.4866 20.9919H19.4827C19.5065 22.7356 19.5256 25.8102 19.5276 30.2145H19.5472C19.5449 30.2177 19.5437 30.221 19.5413 30.2242L19.5276 30.2145C19.3653 30.4437 19.4045 30.3979 19.2386 30.6324C13.3115 39.0049 12.5454 40.1123 12.477 40.4175C12.3427 41.017 12.516 41.6704 12.9418 42.1714H12.9438C13.3666 42.6692 14.2315 42.9351 14.8851 42.7651C15.6278 42.5722 15.4832 42.7435 19.2562 37.4156L20.555 35.5797C20.8336 35.1864 20.9961 34.9615 21.3342 34.484L22.092 33.4137C21.1176 33.2494 20.4038 32.4058 20.4026 31.4177C20.4026 30.2985 21.3107 29.3923 22.4298 29.3923C23.549 29.3923 24.4552 30.2984 24.4552 31.4177C24.4544 31.4449 24.4532 31.4725 24.4513 31.4997L25.1525 32.4919L27.0137 35.1188L28.6387 37.4157C32.4117 42.7436 32.2691 42.5723 33.0117 42.7652C33.6653 42.9352 34.5283 42.6693 34.9511 42.1715H34.9531C35.3789 41.6705 35.5542 41.0171 35.4199 40.4176C35.3515 40.1125 34.5854 39.0051 28.6583 30.6325C28.4924 30.398 28.5296 30.4438 28.3673 30.2146L28.3614 30.2185C28.3605 30.217 28.3604 30.216 28.3595 30.2146H28.3673L28.377 27.2322C28.1082 28.0704 27.3296 28.6399 26.4494 28.6404C25.3302 28.6404 24.4221 27.7323 24.4221 26.6131C24.4221 25.494 25.3302 24.5877 26.4494 24.5877C27.3374 24.5884 28.1206 25.167 28.3829 26.0154L28.4083 19.1678L30.4962 23.2244C31.6445 25.4562 32.688 27.3965 32.8146 27.5348C33.0206 27.7731 33.1699 28.0423 33.3946 28.1344C34.7731 28.6998 35.8556 27.6555 35.9571 26.7574C36.0872 25.607 34.7455 23.2942 34.1387 22.0817C34.1387 21.888 31.5707 16.8126 31.1505 16.1756C30.2968 14.8812 29.3387 14.1168 28.1798 13.8084C27.8242 13.7141 25.8781 13.6679 23.9299 13.6697L23.9298 13.6698ZM23.7931 14.1815H24.1134L27.6035 14.2577L27.9238 14.2791C29.2219 14.5065 30.069 15.4711 30.8125 16.6033L35.1016 25.2126C36.3859 28.1094 33.6851 28.1298 33.2618 27.2849L28.8634 18.9295L27.8771 17.2166L27.8927 19.1678L27.8977 20.2498C27.896 19.5709 27.625 18.9205 27.1442 18.4412C26.6634 17.9619 26.0121 17.6929 25.3333 17.6932C24.9966 17.6933 24.6633 17.7597 24.3523 17.8887C24.0413 18.0176 23.7588 18.2065 23.5209 18.4447C23.2829 18.6828 23.0942 18.9655 22.9655 19.2766C22.8368 19.5876 22.7706 19.921 22.7708 20.2577C22.771 20.9372 23.0411 21.5889 23.5216 22.0694C24.0021 22.5499 24.6537 22.8199 25.3333 22.8201C26.0125 22.8205 26.6641 22.5512 27.1449 22.0715C27.6257 21.5917 27.8965 20.9408 27.8977 20.2616L27.9192 24.5095C27.4869 24.2018 26.9698 24.0359 26.4392 24.0345C26.1024 24.0344 25.7689 24.1007 25.4577 24.2296C25.1465 24.3585 24.8638 24.5474 24.6257 24.7856C24.3876 25.0239 24.1987 25.3067 24.07 25.6179C23.9412 25.9291 23.875 26.2627 23.8753 26.5995C23.8754 26.9361 23.9418 27.2695 24.0707 27.5804C24.1997 27.8914 24.3886 28.1739 24.6267 28.4119C24.8649 28.6499 25.1476 28.8386 25.4586 28.9673C25.7697 29.096 26.1031 29.1621 26.4397 29.162C26.9786 29.1609 27.5035 28.9901 27.9397 28.6737L27.9495 30.5135L34.7775 40.2809C35.4 41.7033 33.6544 43.0848 32.3771 41.7125C29.9173 38.3413 27.4632 34.9665 24.9924 31.6036C24.9985 31.5342 25.0018 31.4644 25.0022 31.3947C25.002 30.7151 24.7319 30.0635 24.2514 29.583C23.7709 29.1025 23.1193 28.8324 22.4397 28.8322C21.7602 28.8324 21.1085 29.1025 20.628 29.583C20.1475 30.0635 19.8775 30.7151 19.8773 31.3947C19.8776 31.8661 20.008 32.3283 20.254 32.7304C20.5 33.1325 20.8522 33.459 21.2717 33.6739L15.4858 41.7418C14.0648 43.1938 12.5648 41.3888 13.1128 40.2769L20.0428 30.211L20.0388 29.891L19.9998 21.5021V21.4826C20.5759 21.3627 21.0933 21.0481 21.4649 20.5918C21.8366 20.1355 22.0399 19.5652 22.0407 18.9767C22.0409 18.64 21.9747 18.3067 21.846 17.9956C21.7173 17.6845 21.5286 17.4018 21.2907 17.1637C21.0527 16.9256 20.7702 16.7366 20.4592 16.6077C20.1482 16.4787 19.8149 16.4123 19.4783 16.4122C19.1416 16.4123 18.8083 16.4787 18.4973 16.6077C18.1863 16.7366 17.9038 16.9256 17.6658 17.1637C17.4279 17.4018 17.2392 17.6845 17.1105 17.9956C16.9818 18.3067 16.9156 18.64 16.9158 18.9767C16.9167 19.3687 17.0074 19.7553 17.1811 20.1068C17.3548 20.4583 17.6069 20.7652 17.9178 21.004L14.783 26.9394C13.962 28.2864 12.0671 27.2044 12.434 26.0384L17.1606 16.4447L17.3403 16.1791C18.1203 15.2371 18.9276 14.3492 20.1703 14.2748L20.4906 14.2573L23.7931 14.1815ZM25.338 18.2459C26.4571 18.2459 27.3652 19.154 27.3652 20.2732C27.3652 21.3924 26.4571 22.2986 25.338 22.2986C24.2188 22.2986 23.3107 21.3924 23.3107 20.2732C23.3107 19.154 24.2188 18.2459 25.338 18.2459ZM16.4691 41.9706L16.1681 42.3786C18.6429 43.4408 21.3068 43.9921 24 43.9996C26.6666 43.9998 29.3063 43.4667 31.7639 42.4316L31.4397 41.9941C29.0814 42.9742 26.5535 43.4811 23.9998 43.4861C21.4137 43.4857 18.8536 42.9705 16.4686 41.9705L16.4691 41.9706Z" fill="#333333"/>
</svg>
